icons/linear-ele-office-doc-document.svg

<svg xmlns="http://www.w3.org/2000/svg" width="32px" height="32px" viewBox="0 0 32 32" version="1.1">
    <title>linear-ele-office-doc-document</title>
    <g id="linear-ele-office-doc-document" stroke-width="1" fill-rule="evenodd">
        <path d="M20,2 C20.2652165,2 20.5195704,2.10535684 20.7071068,2.29289322 L27.7071068,9.29289322 C27.8946432,9.4804296 28,9.73478351 28,10 L28,29 C28,29.5522847 27.5522847,30 27,30 L5,30 C4.44771525,30 4,29.5522847 4,29 L4,3 C4,2.44771525 4.44771525,2 5,2 L20,2 Z M18,4 L6,4 L6,28 L26,28 L26,12 L19,12 C18.4477153,12 18,11.5522847 18,11 L18,4 Z M21,22 C21.5522847,22 22,22.4477153 22,23 C22,23.5522847 21.5522847,24 21,24 L11,24 C10.4477153,24 10,23.5522847 10,23 C10,22.4477153 10.4477153,22 11,22 L21,22 Z M21,16 C21.5522847,16 22,16.4477153 22,17 C22,17.5522847 21.5522847,18 21,18 L11,18 C10.4477153,18 10,17.5522847 10,17 C10,16.4477153 10.4477153,16 11,16 L21,16 Z M14,10 C14.5522847,10 15,10.4477153 15,11 C15,11.5522847 14.5522847,12 14,12 L11,12 C10.4477153,12 10,11.5522847 10,11 C10,10.4477153 10.4477153,10 11,10 L14,10 Z M25.585,10 L20,4.415 L20,10 L25.585,10 Z" id="&#24418;&#29366;" fill-rule="nonzero" />
    </g>
</svg>

<svg xmlns="http://www.w3.org/2000/svg" viewBox="0 0 32 32"><path fill="currentColor" d="M20 2a1 1 0 0 1 .707.293l7 7A1 1 0 0 1 28 10v19a1 1 0 0 1-1 1H5a1 1 0 0 1-1-1V3a1 1 0 0 1 1-1zm-2 2H6v24h20V12h-7a1 1 0 0 1-1-1zm3 18a1 1 0 0 1 0 2H11a1 1 0 0 1 0-2zm0-6a1 1 0 0 1 0 2H11a1 1 0 0 1 0-2zm-7-6a1 1 0 0 1 0 2h-3a1 1 0 0 1 0-2zm11.585 0L20 4.415V10z"/></svg>
